assets/img/braze_icons/scissors-02.svg

<svg fill="none" height="24" viewBox="0 0 24 24" width="24" xmlns="http://www.w3.org/2000/svg"><path clip-rule="evenodd" d="m3.95717 9.43974c-1.17194-.69751-1.95717-1.97692-1.95717-3.43974 0-2.20914 1.79086-4 4-4s4 1.79086 4 4c0 1.40381-.72316 2.63872-1.81727 3.35252l2.99627 1.52538 9.3673-4.76885c.4922-.25056 1.0943-.0547 1.3448.43748.2506.49218.0547 1.09428-.4374 1.34485l-8.0706 4.10862 8.0706 4.1087c.4922.2505.6881.8526.4375 1.3448s-.8527.688-1.3449.4375l-9.3673-4.7689-2.99627 1.5254c1.09411.7138 1.81727 1.9487 1.81727 3.3525 0 2.2091-1.79086 4-4 4s-4-1.7909-4-4c0-1.4628.78519-2.7422 1.9571-3.4397.02673-.0172.05451-.0333.08333-.0482.09667-.0545.19583-.105.29726-.1514l4.63708-2.3607-4.63717-2.36074c-.10137-.04638-.20047-.09687-.29708-.15126-.02882-.01491-.05661-.03103-.08335-.04826zm.04283-3.43974c0-1.10457.89543-2 2-2s2 .89543 2 2-.89543 2-2 2c-.28698 0-.55984-.06044-.80655-.16929l-.19646-.10002c-.59614-.34623-.99699-.99165-.99699-1.73069zm.99693 10.2693c-.59611.3463-.99693.9917-.99693 1.7307 0 1.1046.89543 2 2 2s2-.8954 2-2-.89543-2-2-2c-.28696 0-.5598.0604-.80649.1693z" fill="#801ed7" fill-rule="evenodd"/></svg>

<svg width="24" height="24" viewBox="0 0 24 24" fill="none" xmlns="http://www.w3.org/2000/svg">
<path fill-rule="evenodd" clip-rule="evenodd" d="M3.95717 9.43974C2.78523 8.74223 2 7.46282 2 6C2 3.79086 3.79086 2 6 2C8.20914 2 10 3.79086 10 6C10 7.40381 9.27684 8.63872 8.18273 9.35252L11.179 10.8779L20.5463 6.10905C21.0385 5.85849 21.6406 6.05435 21.8911 6.54653C22.1417 7.03871 21.9458 7.64081 21.4537 7.89138L13.3831 12L21.4537 16.1087C21.9459 16.3592 22.1418 16.9613 21.8912 17.4535C21.6406 17.9457 21.0385 18.1415 20.5463 17.891L11.179 13.1221L8.18273 14.6475C9.27684 15.3613 10 16.5962 10 18C10 20.2091 8.20914 22 6 22C3.79086 22 2 20.2091 2 18C2 16.5372 2.78519 15.2578 3.9571 14.5603C3.98383 14.5431 4.01161 14.527 4.04043 14.5121C4.1371 14.4576 4.23626 14.4071 4.33769 14.3607L8.97477 12L4.3376 9.63926C4.23623 9.59288 4.13713 9.54239 4.04052 9.488C4.0117 9.47309 3.98391 9.45697 3.95717 9.43974ZM4 6C4 4.89543 4.89543 4 6 4C7.10457 4 8 4.89543 8 6C8 7.10457 7.10457 8 6 8C5.71302 8 5.44016 7.93956 5.19345 7.83071L4.99699 7.73069C4.40085 7.38446 4 6.73904 4 6ZM4.99693 16.2693C4.40082 16.6156 4 17.261 4 18C4 19.1046 4.89543 20 6 20C7.10457 20 8 19.1046 8 18C8 16.8954 7.10457 16 6 16C5.71304 16 5.4402 16.0604 5.19351 16.1693L4.99693 16.2693Z" fill="#801ED7"/>
</svg>
